X:1
T:James Gibb editions
T:Salutis humanae Sator - Ravanello
T:#
%%score { 1 | 2 } 3
L:1/8
Q:1/4=126
M:4/4
K:Eb
V:1 treble nm="Soprano I" snm="S"
V:2 treble 
V:3 treble nm="Alto" snm="A"
V:1
"^Salutis humanae Sator, op.66/13""^Oreste Ravanello\n (1871-1938)""^allegro"!f! B2 | e4 (B2 c2) | %2
w: Sa-|lu- tis hu-|
w: Per-|rum- pis in-|
w: Tu|dux ad *|
 ((A3 B) c2) d2 | ((e3 d) c4) |"^," d8 | (Bcde) f2 f2 |[M:4/4] e6 e2 | (e2 dc d2) d2 | e8 | %9
w: ma\- * * nae|Sa\- * *|tor,|Je\- * * * su vo-|lu- ptas|cor\- * * * di-|um,|
w: fer\- * * num|cha\- * *|os;|Vin\- * * * ctis ca-|te- nas|de\- * * * tra-|his;|
w: a\- * stra, et|se\- * mi-|tas,|Sis * * * me- ta|no- stris|cor\- * * * di-|bus,|
 e4 e2 e2 | d6 d2 | (c3 d) e4 | d6- d2 | d4 e2 f2 | g4 e4 | ((e2 dc) d4) | !fermata!e8 || %17
w: Or- bis re-|dem- pti|Con\- * di-|tor, *|Et ca- sta|lux a-|man\- * * ti-|um.|
w: Vi- ctor tri-|um- pho|no\- * bi-|li Ad|de- xte- ram|Pa- tris|se\- * * *|des.|
w: sis la- cri-|ma- rum|gau\- * di-|um, *|sis dul- ce|vi- tae|prae\- * * mi-|um.|
!ff! (e4 c4) | !fermata!B8 |] %19
w: ||
w: ||
w: A\- *|men.|
V:2
!f! B2 | B4 (G2 G2) | A4- A2 A2 | ((G2 cB) =A4) |"^," B8 | B4 B2 B2 |[M:4/4] (G3 _A B2) c2 | %7
w: Sa-|lu- tis hu-|ma\- * nae|Sa\- * * *|tor,|Je- su vo-|lu\- * * ptas|
w: Per-|rum- pis in-|fer\- * num|cha\- * * *|os;|Vin- ctis ca-|te\- * * nas|
w: Tu|dux ad *|a- stra, et|se\- * * mi-|tas,|Sis me- ta|no\- * * stris|
 A6 A2 | G8 | c4 c2 c2 | (c2 =B=A B2) B2 | (c2 G4) =A2 | _B6- B2 | B4 B2 B2 | B4 (B2 cB) | %15
w: cor- di-|um,|Or- bis re-|dem\- * * * pti|Con\- * di-|tor, *|Et ca- sta|lux a\- * *|
w: de- tra-|his;|Vi- ctor tri-|um\- * * * pho|no\- * bi-|li Ad|de- xte- ram|Pa- tris * *|
w: cor- di-|bus,|sis la- cri-|ma\- * * * rum|gau\- * di-|um, *|sis dul- ce|vi- tae * *|
 (A4 A4) | !fermata!G8 ||!ff! (G4 A4- | A2 GF) !fermata!G4 |] %19
w: man- ti-|um.|||
w: se\- *|des.|||
w: prae- mi-|um.|A\- *|* * * men.|
V:3
!f! B2 | G4 (E2 E2) | F4- F2 F2 | ((_C2 E2) F4) |"^," B,8 | B,3 C D2 D2 |[M:4/4] (E3 F G2) A2 | %7
w: Sa-|lu- tis hu-|ma\- * nae|Sa\- * *|tor,|Je\- * su vo-|lu\- * * ptas|
w: Per-|rum- pis in-|fer\- * num|cha\- * *|os;|Vin\- * ctis ca-|te\- * * nas|
w: Tu|dux ad *|a- stra, et|se\- * mi-|tas,|Sis * me- ta|no\- * * stris|
 F6 F2 | E8 | C4 C2 C2 | G6 F2 | (E3 D C2) F2 | B,6- B,2 | B,4 C2 D2 | E4 (G2 AG) | (F4 F4) | %16
w: cor- di-|um,|Or- bis re-|dem- pti|Con\- * * di-|tor, *|Et ca- sta|lux a\- * *|man- ti-|
w: de- tra-|his;|Vi- ctor tri-|um- pho|no\- * * bi-|li Ad|de- xte- ram|Pa- tris * *|se\- *|
w: cor- di-|bus,|sis la- cri-|ma- rum|gau\- * * di-|um, *|sis dul- ce|vi- tae * *|prae- mi-|
 !fermata!E8 ||!ff! (E4 A4) | !fermata!E8 |] %19
w: um.|||
w: des.|||
w: um.|A\- *|men.|

